images/header/basket.svg

<svg width="19" height="18" viewBox="0 0 19 18" fill="none" xmlns="http://www.w3.org/2000/svg">
<path fill-rule="evenodd" clip-rule="evenodd" d="M4.11944 1.80229C3.9604 1.80194 3.80709 1.82003 3.6614 1.85443C3.46169 1.41204 3.19789 1.01515 2.89785 0.713604C2.38861 0.201799 1.58545 0 0.473633 0V1.8C1.15282 1.8 1.54367 1.8982 1.63142 1.9864C1.9699 2.32657 2.26464 3.01776 2.26464 3.6L2.27364 3.72728L3.15111 9.90046C1.68288 9.97702 0.54545 11.1229 0.474733 12.5554L0.473633 13.5C0.560336 14.9795 1.69398 16.1177 3.10931 16.1985L3.31261 16.1989C3.68109 17.2481 4.6765 18 5.84665 18C7.01637 18 8.01149 17.2487 8.38029 16.2H10.477C10.8458 17.2487 11.8409 18 13.0107 18C14.4944 18 15.6972 16.7912 15.6972 15.3C15.6972 13.8088 14.4944 12.6 13.0107 12.6C11.8409 12.6 10.8458 13.3513 10.477 14.4H8.38029C8.01149 13.3513 7.01637 12.6 5.84665 12.6C4.67692 12.6 3.68181 13.3513 3.31301 14.4H3.16014C2.70344 14.3725 2.29377 13.9612 2.26303 13.4461L2.26464 12.6C2.28878 12.1332 2.69565 11.7243 3.20452 11.6989L4.97236 11.6993L4.98517 11.7H14.0108L14.143 11.6578C14.822 11.4413 15.3655 10.9275 15.6229 10.2623L15.7172 10.0746L16.0237 9.46429C16.3408 8.83253 16.658 8.19968 16.967 7.58142C17.7239 6.06697 18.1999 5.1045 18.3053 4.86815C18.8467 3.65441 17.75 2.72022 16.6291 2.70032L4.11944 1.80229ZM13.6997 9.9H5.05222C4.99472 9.88393 4.9509 9.83498 4.94233 9.77401L4.06483 3.60066L16.4972 4.49543C16.2797 4.94129 15.8842 5.73764 15.3665 6.77348L15.3536 6.79944C15.058 7.39067 14.7414 8.02265 14.4247 8.65357L14.1185 9.26311L14.0025 9.49395L13.9588 9.596C13.912 9.72698 13.8191 9.83462 13.6997 9.9ZM13.0107 16.2C13.5052 16.2 13.9062 15.7971 13.9062 15.3C13.9062 14.8029 13.5052 14.4 13.0107 14.4C12.5161 14.4 12.1152 14.8029 12.1152 15.3C12.1152 15.7971 12.5161 16.2 13.0107 16.2ZM6.74215 15.3C6.74215 15.7971 6.34122 16.2 5.84665 16.2C5.35208 16.2 4.95115 15.7971 4.95115 15.3C4.95115 14.8029 5.35208 14.4 5.84665 14.4C6.34122 14.4 6.74215 14.8029 6.74215 15.3Z" fill="white"/>
</svg>

<svg width="19" height="18" fill="none" xmlns="http://www.w3.org/2000/svg"><path fill-rule="evenodd" clip-rule="evenodd" d="M4.1194 1.8023a1.972 1.972 0 0 0-.458.0521c-.1997-.4424-.4635-.8393-.7635-1.1408C2.3885.2018 1.5855 0 .4735 0v1.8c.6792 0 1.07.0982 1.1578.1864.3385.3402.6332 1.0314.6332 1.6136l.009.1273.8775 6.1732C1.683 9.977.5454 11.1229.4747 12.5554l-.001.9446c.0866 1.4795 1.2203 2.6177 2.6356 2.6985l.2033.0004C3.6811 17.2481 4.6765 18 5.8466 18c1.1698 0 2.1649-.7513 2.5337-1.8h2.0967c.3688 1.0487 1.3639 1.8 2.5337 1.8 1.4837 0 2.6865-1.2088 2.6865-2.7s-1.2028-2.7-2.6865-2.7c-1.1698 0-2.1649.7513-2.5337 1.8H8.3803c-.3688-1.0487-1.364-1.8-2.5336-1.8-1.1698 0-2.1649.7513-2.5337 1.8h-.1529c-.4567-.0275-.8663-.4388-.897-.9539l.0015-.8461c.0242-.4668.431-.8757.94-.9011l1.7678.0004.0128.0007h9.0256l.1322-.0422a2.3555 2.3555 0 0 0 1.4799-1.3955l.0943-.1877.3065-.6103c.3171-.6318.6343-1.2646.9433-1.8829.7569-1.5144 1.2329-2.4769 1.3383-2.7133.5414-1.2137-.5553-2.1479-1.6762-2.1678l-12.5097-.898ZM13.6997 9.9H5.0522a.1528.1528 0 0 1-.1099-.126l-.8775-6.1733 12.4324.8947c-.2175.4459-.613 1.2422-1.1307 2.278l-.0129.026c-.2956.5913-.6122 1.2233-.9289 1.8542l-.3062.6095-.116.2309-.0437.102a.562.562 0 0 1-.2591.304Zm-.689 6.3c.4945 0 .8955-.4029.8955-.9 0-.4971-.401-.9-.8955-.9-.4946 0-.8955.4029-.8955.9 0 .4971.4009.9.8955.9Zm-6.2686-.9c0 .4971-.4009.9-.8954.9-.4946 0-.8956-.4029-.8956-.9 0-.4971.401-.9.8956-.9.4945 0 .8954.4029.8954.9Z" fill="#fff"/></svg>
